icon/pk/pineapple.svg

<svg viewBox="0 0 48 48" fill="none" xmlns="http://www.w3.org/2000/svg" height="1em" width="1em">
  <path d="M20.5 14.5C20 14 20 13.1492 20 11C20 7.13401 24 4 24 4C24 4 27 7.13401 27 11C27 12.9224 27 14 26.5 14.5" stroke="black" stroke-width="4" stroke-linecap="round" stroke-linejoin="round"/>
  <path d="M17 17.0002C15.7891 14.082 12.8623 10.4327 11 9.00018C16.411 7.98561 20.7736 11.3008 23 14.0002" stroke="black" stroke-width="4" stroke-linecap="round" stroke-linejoin="round"/>
  <path d="M30 16C31.4519 13.303 34.3038 10.3047 36 8.99997C30.3567 7.94185 26.1286 11.2611 24 14" stroke="black" stroke-width="4" stroke-linecap="round" stroke-linejoin="round"/>
  <path d="M16.7254 17.3742C16.1755 17.8607 15.5999 18.4006 15.0005 19C10.8099 23.1905 10.1023 30.864 10.0028 34.2804C9.96939 35.4298 9.97739 36.6023 10.4118 37.6669C10.8787 38.811 11.8749 40.4055 14.0008 42C18.0006 45 30.0006 45 34.0003 42C36.1167 40.4127 37.1132 38.8254 37.5824 37.6824C38.0234 36.6083 38.0311 35.4238 37.9969 34.2632C37.8958 30.8382 37.184 23.1834 33.0006 19C32.4011 18.4006 31.8254 17.8605 31.2754 17.374C27.0168 13.6072 20.984 13.6074 16.7254 17.3742Z" stroke="black" stroke-width="4" stroke-linecap="round" stroke-linejoin="round"/>
  <path d="M32 18L11 29" stroke="black" stroke-width="4" stroke-linecap="round" stroke-linejoin="round"/>
  <path d="M16 18L37 29" stroke="black" stroke-width="4" stroke-linecap="round" stroke-linejoin="round"/>
  <path d="M35 41L11 27" stroke="black" stroke-width="4" stroke-linecap="round" stroke-linejoin="round"/>
  <path d="M37 27L13 41" stroke="black" stroke-width="4" stroke-linecap="round" stroke-linejoin="round"/>
</svg>

<svg width="48" height="48" fill="none" xmlns="http://www.w3.org/2000/svg"><path d="M20.5 14.5C20 14 20 13.15 20 11c0-3.866 4-7 4-7s3 3.134 3 7c0 1.922 0 3-.5 3.5" stroke="#000" stroke-width="4" stroke-linecap="round" stroke-linejoin="round"/><path d="M17 17c-1.21-2.918-4.138-6.567-6-8 5.411-1.014 9.774 2.3 12 5M30 16c1.452-2.697 4.304-5.695 6-7-5.643-1.058-9.871 2.261-12 5" stroke="#000" stroke-width="4" stroke-linecap="round" stroke-linejoin="round"/><path d="M16.725 17.374A38.81 38.81 0 0 0 15 19c-4.19 4.19-4.898 11.864-4.997 15.28-.034 1.15-.026 2.322.409 3.387C10.879 38.81 11.875 40.406 14 42c4 3 16 3 20 0 2.116-1.587 3.112-3.175 3.581-4.318.441-1.074.45-2.258.415-3.419C37.896 30.838 37.184 23.183 33 19c-.6-.6-1.176-1.14-1.726-1.626-4.258-3.767-10.291-3.767-14.55 0ZM32 18 11 29M16 18l21 11M35 41 11 27M37 27 13 41" stroke="#000" stroke-width="4" stroke-linecap="round" stroke-linejoin="round"/></svg>
